;FLAVOR:Marlin
;TIME:764
;Filament used: 0.304295m
;Layer height: 0.2
;MINX:92.664
;MINY:94.18
;MINZ:0.2
;MAXX:127.334
;MAXY:125.824
;MAXZ:12.6
;Generated with Cura_SteamEngine 5.3.1
M82 ;absolute extrusion mode
; Ender 3 Custom Start G-code
G92 E0 ; Reset Extruder
G28 ; Home all axes
M104 S175 ; Start heating up the nozzle most of the way
M190 S60 ; Start heating the bed, wait until target temperature reached
M109 S200 ; Finish heating the nozzle
G1 Z2.0 F3000 ; Move Z Axis up little to prevent scratching of Heat Bed
G1 X0.1 Y20 Z0.3 F5000.0 ; Move to start position
G1 X0.1 Y200.0 Z0.3 F1500.0 E15 ; Draw the first line
G1 X0.4 Y200.0 Z0.3 F5000.0 ; Move to side a little
G1 X0.4 Y20 Z0.3 F1500.0 E30 ; Draw the second line
G92 E0 ; Reset Extruder
G1 Z2.0 F3000 ; Move Z Axis up little to prevent scratching of Heat Bed
G1 X5 Y20 Z0.3 F5000.0 ; Move over to prevent blob squish
G92 E0
G92 E0
G1 F1500 E-6.5
;LAYER_COUNT:64
;LAYER:0
M107
G0 F6000 X98.488 Y99.644 Z0.2
;TYPE:SKIRT
G1 F1500 E0
G1 F1200 X98.949 Y99.215 E0.02094
G1 X99.547 Y98.701 E0.04717
G1 X100.027 Y98.326 E0.06743
G1 X100.387 Y98.06 E0.08232
G1 X100.938 Y97.681 E0.10456
G1 X101.473 Y97.348 E0.12552
G1 X101.866 Y97.118 E0.14067
G1 X102.571 Y96.742 E0.16724
G1 X103.129 Y96.477 E0.18779
G1 X103.502 Y96.311 E0.20137
G1 X104.077 Y96.076 E0.22203
G1 X104.723 Y95.845 E0.24485
G1 X105.165 Y95.702 E0.2603
G1 X105.861 Y95.504 E0.28436
G1 X106.469 Y95.361 E0.30514
G1 X106.903 Y95.271 E0.31988
G1 X107.688 Y95.14 E0.34635
G1 X107.987 Y95.102 E0.35637
G1 X108.704 Y95.03 E0.38034
G1 X109.343 Y94.991 E0.40164
G1 X110.039 Y94.98 E0.42479
G1 X110.493 Y94.987 E0.43989
G1 X111.112 Y95.016 E0.4605
G1 X111.861 Y95.085 E0.48552
G1 X112.321 Y95.143 E0.50094
G1 X113.017 Y95.255 E0.52438
G1 X113.7 Y95.399 E0.5476
G1 X114.079 Y95.49 E0.56056
G1 X114.749 Y95.675 E0.58368
G1 X115.403 Y95.889 E0.60657
G1 X115.878 Y96.059 E0.62335
G1 X116.855 Y96.467 E0.65856
G1 X117.407 Y96.732 E0.67893
G1 X118.13 Y97.115 E0.70614
G1 X118.646 Y97.421 E0.7261
G1 X118.974 Y97.626 E0.73896
G1 X119.532 Y98.002 E0.76134
G1 X120.064 Y98.395 E0.78334
G1 X120.413 Y98.669 E0.7981
G1 X120.972 Y99.141 E0.82243
G1 X121.19 Y99.339 E0.83223
G1 X121.765 Y99.895 E0.85883
G1 X122.183 Y100.332 E0.87894
G1 X122.656 Y100.873 E0.90284
G1 X122.939 Y101.218 E0.91768
G1 X123.393 Y101.814 E0.9426
G1 X123.765 Y102.354 E0.96441
G1 X123.977 Y102.679 E0.97732
G1 X124.339 Y103.278 E1.0006
G1 X124.659 Y103.865 E1.02283
G1 X124.842 Y104.223 E1.03621
G1 X125.243 Y105.109 E1.06855
G1 X125.493 Y105.74 E1.09113
G1 X125.778 Y106.559 E1.11997
G1 X125.964 Y107.205 E1.14233
G1 X126.071 Y107.618 E1.15652
G1 X126.235 Y108.367 E1.18202
G1 X126.34 Y108.98 E1.20271
G1 X126.397 Y109.369 E1.21578
G1 X126.482 Y110.161 E1.24228
G1 X126.521 Y110.811 E1.26393
G1 X126.534 Y111.176 E1.27608
G1 X126.533 Y111.918 E1.30076
G1 X126.502 Y112.557 E1.32204
G1 X126.466 Y113.046 E1.33835
G1 X126.339 Y114.069 E1.37263
G1 X126.23 Y114.687 E1.3935
G1 X126.044 Y115.531 E1.42225
G1 X125.888 Y116.099 E1.44184
G1 X125.765 Y116.51 E1.45611
G1 X125.536 Y117.188 E1.47991
G1 X125.314 Y117.754 E1.50013
G1 X125.136 Y118.176 E1.51537
G1 X124.845 Y118.806 E1.53845
G1 X124.534 Y119.404 E1.56087
G1 X124.325 Y119.779 E1.57515
G1 X123.851 Y120.547 E1.60516
G1 X123.31 Y121.271 E1.63522
G1 X122.708 Y121.944 E1.66526
G1 X122.049 Y122.561 E1.69528
G1 X121.337 Y123.118 E1.72535
G1 X120.58 Y123.609 E1.75536
G1 X119.781 Y124.031 E1.78541
G1 X118.949 Y124.381 E1.81543
G1 X118.089 Y124.656 E1.84546
G1 X117.208 Y124.854 E1.8755
G1 X116.312 Y124.973 E1.90556
G1 X115.564 Y125.012 E1.93047
G1 X114.664 Y125.024 E1.96041
G1 X105.141 Y125.023 E2.27715
G1 X104.441 Y125.013 E2.30043
G1 X103.54 Y124.96 E2.33045
G1 X102.646 Y124.828 E2.36051
G1 X101.768 Y124.617 E2.39054
G1 X100.912 Y124.329 E2.42058
G1 X100.085 Y123.967 E2.4506
G1 X99.293 Y123.533 E2.48064
G1 X98.543 Y123.03 E2.51068
G1 X97.84 Y122.463 E2.54072
G1 X97.189 Y121.837 E2.57076
G1 X96.597 Y121.155 E2.60079
G1 X96.068 Y120.423 E2.63083
G1 X95.621 Y119.677 E2.65976
G1 X95.301 Y119.087 E2.68208
G1 X94.911 Y118.287 E2.71168
G1 X94.65 Y117.667 E2.73406
G1 X94.495 Y117.268 E2.74829
G1 X94.27 Y116.624 E2.77098
G1 X94.076 Y115.973 E2.79358
G1 X93.959 Y115.532 E2.80875
G1 X93.821 Y114.942 E2.8289
G1 X93.692 Y114.251 E2.85228
G1 X93.619 Y113.78 E2.86814
G1 X93.53 Y113.01 E2.89392
G1 X93.49 Y112.427 E2.91335
G1 X93.47 Y111.977 E2.92834
G1 X93.464 Y111.239 E2.95288
G1 X93.489 Y110.602 E2.97409
G1 X93.517 Y110.178 E2.98822
G1 X93.587 Y109.481 E3.01152
G1 X93.677 Y108.868 E3.03212
G1 X93.749 Y108.45 E3.04623
G1 X93.915 Y107.67 E3.07276
G1 X94.07 Y107.083 E3.09295
G1 X94.203 Y106.626 E3.10878
G1 X94.427 Y105.948 E3.13253
G1 X94.656 Y105.352 E3.15376
G1 X94.837 Y104.918 E3.1694
G1 X95.118 Y104.302 E3.19192
G1 X95.389 Y103.774 E3.21166
G1 X95.606 Y103.376 E3.22674
G1 X95.953 Y102.788 E3.24945
G1 X96.342 Y102.192 E3.27312
G1 X96.597 Y101.827 E3.28793
G1 X97.041 Y101.239 E3.31244
G1 X97.418 Y100.786 E3.33204
G1 X97.762 Y100.393 E3.34941
G1 X98.488 Y99.644 E3.3841
G0 F6000 X98.216 Y99.351
G1 F1200 X98.688 Y98.912 E3.40554
G1 X99.301 Y98.386 E3.43241
G1 X99.789 Y98.004 E3.45302
G1 X100.16 Y97.73 E3.46836
G1 X100.727 Y97.341 E3.49123
G1 X101.271 Y97.003 E3.51253
G1 X101.678 Y96.765 E3.52821
G1 X102.399 Y96.381 E3.55538
G1 X102.966 Y96.112 E3.57626
G1 X103.351 Y95.941 E3.59027
G1 X103.942 Y95.699 E3.61151
G1 X104.6 Y95.464 E3.63475
G1 X105.056 Y95.317 E3.65068
G1 X105.769 Y95.115 E3.67533
G1 X106.388 Y94.969 E3.69648
G1 X106.837 Y94.876 E3.71173
G1 X107.638 Y94.743 E3.73874
G1 X107.947 Y94.704 E3.7491
G1 X108.68 Y94.631 E3.7736
G1 X109.337 Y94.591 E3.79549
G1 X110.045 Y94.58 E3.81904
G1 X110.512 Y94.587 E3.83458
G1 X111.131 Y94.616 E3.85519
G1 X111.911 Y94.688 E3.88124
G1 X112.385 Y94.748 E3.89713
G1 X113.1 Y94.864 E3.92122
G1 X113.793 Y95.01 E3.94478
G1 X114.185 Y95.104 E3.95819
G1 X114.873 Y95.295 E3.98194
G1 X115.538 Y95.512 E4.0052
G1 X116.013 Y95.682 E4.02198
G1 X117.028 Y96.106 E4.05857
G1 X117.58 Y96.371 E4.07893
G1 X118.334 Y96.771 E4.10732
G1 X118.85 Y97.077 E4.12727
G1 X119.198 Y97.294 E4.14092
G1 X119.77 Y97.68 E4.16387
G1 X120.311 Y98.08 E4.18624
G1 X120.671 Y98.363 E4.20148
G1 X121.241 Y98.845 E4.2263
G1 X121.468 Y99.051 E4.2365
G1 X122.054 Y99.619 E4.26364
G1 X122.484 Y100.069 E4.28434
G1 X122.965 Y100.619 E4.30865
G1 X123.257 Y100.976 E4.32399
G1 X123.722 Y101.587 E4.34952
G1 X124.1 Y102.135 E4.37167
G1 X124.319 Y102.472 E4.38503
G1 X124.69 Y103.087 E4.40892
G1 X125.015 Y103.683 E4.4315
G1 X125.206 Y104.058 E4.4455
G1 X125.615 Y104.962 E4.4785
G1 X125.871 Y105.609 E4.50164
G1 X126.162 Y106.448 E4.53118
G1 X126.351 Y107.105 E4.55392
G1 X126.462 Y107.532 E4.56859
G1 X126.629 Y108.299 E4.5947
G1 X126.736 Y108.922 E4.61572
G1 X126.795 Y109.326 E4.6293
G1 X126.88 Y110.118 E4.65579
G1 X126.921 Y110.797 E4.67842
G1 X126.934 Y111.177 E4.69107
G1 X126.933 Y111.937 E4.71634
G1 X126.901 Y112.586 E4.73796
G1 X126.863 Y113.095 E4.75493
G1 X126.733 Y114.138 E4.78989
G1 X126.621 Y114.773 E4.81134
G1 X126.43 Y115.637 E4.84077
G1 X126.271 Y116.214 E4.86067
G1 X126.144 Y116.638 E4.8754
G1 X125.908 Y117.334 E4.89984
G1 X125.683 Y117.909 E4.92038
G1 X125.499 Y118.344 E4.93609
G1 X125.2 Y118.991 E4.95979
G1 X124.883 Y119.599 E4.9826
G1 X124.665 Y119.989 E4.99746
G1 X124.191 Y120.757 E5.02747
G1 X123.608 Y121.538 E5.05989
G1 X123.006 Y122.211 E5.08992
G1 X122.295 Y122.876 E5.1223
G1 X121.555 Y123.454 E5.15353
G1 X120.798 Y123.945 E5.18354
G1 X119.968 Y124.385 E5.21479
G1 X119.104 Y124.75 E5.24598
G1 X118.211 Y125.037 E5.27718
G1 X117.261 Y125.251 E5.30957
G1 X116.365 Y125.37 E5.33963
G1 X115.569 Y125.412 E5.36614
G1 X114.664 Y125.424 E5.39625
G1 X105.135 Y125.423 E5.71318
G1 X104.435 Y125.413 E5.73647
G1 X103.482 Y125.356 E5.76822
G1 X102.588 Y125.224 E5.79828
G1 X101.64 Y124.996 E5.83071
G1 X100.784 Y124.708 E5.86075
G1 X99.893 Y124.318 E5.8931
G1 X99.07 Y123.865 E5.92434
G1 X98.32 Y123.362 E5.95438
G1 X97.589 Y122.774 E5.98558
G1 X96.887 Y122.099 E6.01797
G1 X96.273 Y121.389 E6.04919
G1 X95.725 Y120.629 E6.08036
G1 X95.269 Y119.868 E6.10986
G1 X94.941 Y119.262 E6.13278
G1 X94.542 Y118.442 E6.16311
G1 X94.277 Y117.812 E6.18584
G1 X94.117 Y117.4 E6.20054
G1 X93.892 Y116.756 E6.22323
G1 X93.689 Y116.076 E6.24684
G1 X93.572 Y115.635 E6.26201
G1 X93.428 Y115.015 E6.28318
G1 X93.297 Y114.312 E6.30697
G1 X93.222 Y113.826 E6.32332
G1 X93.131 Y113.037 E6.34974
G1 X93.09 Y112.445 E6.36948
G1 X93.07 Y111.98 E6.38496
G1 X93.064 Y111.223 E6.41013
G1 X93.09 Y110.576 E6.43167
G1 X93.119 Y110.138 E6.44627
G1 X93.191 Y109.423 E6.47017
G1 X93.283 Y108.8 E6.49112
G1 X93.358 Y108.367 E6.50573
G1 X93.528 Y107.568 E6.5329
G1 X93.686 Y106.971 E6.55344
G1 X93.823 Y106.501 E6.56973
G1 X94.054 Y105.805 E6.59412
G1 X94.287 Y105.198 E6.61574
G1 X94.473 Y104.752 E6.63181
G1 X94.762 Y104.119 E6.65496
G1 X95.038 Y103.583 E6.67501
G1 X95.262 Y103.173 E6.69055
G1 X95.618 Y102.569 E6.71387
G1 X96.014 Y101.963 E6.73795
G1 X96.278 Y101.586 E6.75325
G1 X96.734 Y100.983 E6.7784
G1 X97.117 Y100.523 E6.79831
G1 X97.475 Y100.115 E6.81636
G1 X98.216 Y99.351 E6.85176
G0 F6000 X97.944 Y99.058
G1 F1200 X98.428 Y98.608 E6.87374
G1 X99.054 Y98.071 E6.90117
G1 X99.551 Y97.682 E6.92217
G1 X99.934 Y97.4 E6.93798
G1 X100.516 Y97.001 E6.96145
G1 X101.069 Y96.658 E6.9831
G1 X101.49 Y96.412 E6.99932
G1 X102.228 Y96.02 E7.02711
G1 X102.804 Y95.746 E7.04832
G1 X103.199 Y95.571 E7.06269
G1 X103.807 Y95.322 E7.08455
G1 X104.477 Y95.083 E7.10821
G1 X104.947 Y94.932 E7.12462
G1 X105.677 Y94.726 E7.14985
G1 X106.307 Y94.577 E7.17138
G1 X106.771 Y94.481 E7.18714
G1 X107.588 Y94.346 E7.21469
G1 X107.907 Y94.306 E7.22538
G1 X108.656 Y94.232 E7.25041
G1 X109.331 Y94.191 E7.2729
G1 X110.051 Y94.18 E7.29685
G1 X110.531 Y94.187 E7.31282
G1 X111.15 Y94.216 E7.33343
G1 X111.961 Y94.291 E7.36052
G1 X112.449 Y94.353 E7.37688
G1 X113.164 Y94.469 E7.40097
G1 X113.886 Y94.621 E7.42551
G1 X114.292 Y94.719 E7.43941
G1 X114.997 Y94.915 E7.46374
G1 X115.673 Y95.135 E7.48739
G1 X116.148 Y95.305 E7.50417
G1 X117.201 Y95.745 E7.54213
G1 X117.753 Y96.01 E7.56249
G1 X118.538 Y96.427 E7.59206
G1 X119.062 Y96.738 E7.61232
G1 X119.422 Y96.962 E7.62642
G1 X120.008 Y97.358 E7.64995
G1 X120.549 Y97.758 E7.67233
G1 X120.929 Y98.058 E7.68843
G1 X121.51 Y98.549 E7.71373
G1 X121.746 Y98.764 E7.72435
G1 X122.343 Y99.343 E7.75201
G1 X122.785 Y99.806 E7.7733
G1 X123.275 Y100.366 E7.79805
G1 X123.575 Y100.734 E7.81384
G1 X124.051 Y101.36 E7.84
G1 X124.435 Y101.917 E7.8625
G1 X124.662 Y102.265 E7.87632
G1 X125.033 Y102.88 E7.90021
G1 X125.371 Y103.501 E7.92372
G1 X125.57 Y103.893 E7.93834
G1 X125.987 Y104.815 E7.972
G1 X126.249 Y105.478 E7.99571
G1 X126.546 Y106.337 E8.02594
G1 X126.738 Y107.004 E8.04903
G1 X126.853 Y107.447 E8.06425
G1 X127.023 Y108.231 E8.09093
G1 X127.132 Y108.864 E8.11229
G1 X127.193 Y109.283 E8.12638
G1 X127.278 Y110.075 E8.15287
G1 X127.321 Y110.783 E8.17646
G1 X127.334 Y111.178 E8.18961
G1 X127.333 Y111.957 E8.21552
G1 X127.3 Y112.616 E8.23746
G1 X127.26 Y113.144 E8.25507
G1 X127.127 Y114.207 E8.2907
G1 X127.012 Y114.859 E8.31272
G1 X126.816 Y115.743 E8.34284
G1 X126.654 Y116.329 E8.36306
G1 X126.523 Y116.766 E8.37824
G1 X126.28 Y117.48 E8.40332
G1 X126.051 Y118.065 E8.42422
G1 X125.862 Y118.512 E8.44036
G1 X125.555 Y119.176 E8.46469
G1 X125.232 Y119.794 E8.48788
G1 X125.005 Y120.199 E8.50332
G1 X124.512 Y120.996 E8.53449
G1 X123.906 Y121.805 E8.56811
G1 X123.304 Y122.478 E8.59815
G1 X122.541 Y123.191 E8.63288
G1 X121.773 Y123.79 E8.66527
G1 X121.016 Y124.281 E8.69528
G1 X120.124 Y124.753 E8.72885
G1 X119.226 Y125.131 E8.76125
G1 X118.333 Y125.418 E8.79245
G1 X117.314 Y125.648 E8.8272
G1 X116.418 Y125.767 E8.85726
G1 X115.574 Y125.812 E8.88537
G1 X114.669 Y125.824 E8.91547
G1 X105.129 Y125.823 E9.23278
G1 X104.411 Y125.812 E9.25666
G1 X103.424 Y125.752 E9.28955
G1 X102.494 Y125.613 E9.32082
G1 X101.546 Y125.385 E9.35325
G1 X100.656 Y125.087 E9.38447
G1 X99.7 Y124.668 E9.41919
G1 X98.847 Y124.197 E9.4516
G1 X98.069 Y123.674 E9.48277
G1 X97.338 Y123.086 E9.51398
G1 X96.584 Y122.361 E9.54877
G1 X95.97 Y121.651 E9.57999
G1 X95.382 Y120.835 E9.61344
G1 X94.917 Y120.058 E9.64356
G1 X94.581 Y119.437 E9.66704
G1 X94.173 Y118.597 E9.6981
G1 X93.904 Y117.957 E9.72119
G1 X93.739 Y117.532 E9.73636
G1 X93.514 Y116.888 E9.75904
G1 X93.302 Y116.179 E9.78366
G1 X93.182 Y115.725 E9.79928
G1 X93.035 Y115.088 E9.82102
G1 X92.902 Y114.373 E9.84521
G1 X92.825 Y113.872 E9.86207
G1 X92.732 Y113.065 E9.88909
G1 X92.69 Y112.462 E9.90919
G1 X92.67 Y111.983 E9.92514
G1 X92.664 Y111.207 E9.95095
G1 X92.691 Y110.55 E9.97282
G1 X92.721 Y110.098 E9.98788
G1 X92.795 Y109.365 E10.01239
G1 X92.889 Y108.732 E10.03367
G1 X92.967 Y108.284 E10.0488
G1 X93.141 Y107.466 E10.07661
G1 X93.302 Y106.859 E10.0975
G1 X93.443 Y106.375 E10.11427
G1 X93.674 Y105.679 E10.13866
G1 X93.918 Y105.044 E10.16128
G1 X94.109 Y104.586 E10.17779
G1 X94.406 Y103.936 E10.20156
G1 X94.687 Y103.391 E10.22195
G1 X94.917 Y102.97 E10.23791
G1 X95.283 Y102.35 E10.26185
G1 X95.686 Y101.734 E10.28634
G1 X95.959 Y101.345 E10.30214
G1 X96.427 Y100.727 E10.32793
G1 X96.816 Y100.259 E10.34817
G1 X97.174 Y99.851 E10.36622
G1 X97.944 Y99.058 E10.40298
G1 F1500 E3.90298
;MESH:adapterprint.STL
G0 F6000 X104.01 Y107.87
G0 X108.002 Y114.222
;TYPE:WALL-INNER
G1 F1500 E10.40298
G1 F1200 X106.525 Y111.739 E10.49908
G1 X106.545 Y111.334 E10.51256
G1 X108.029 Y108.697 E10.6132
G1 X108.282 Y108.486 E10.62416
G1 X108.453 Y108.439 E10.63006
G1 X111.482 Y108.396 E10.73081
G1 X111.722 Y108.483 E10.73931
G1 X111.879 Y108.61 E10.74602
G1 X113.464 Y111.274 E10.84912
G1 X113.488 Y111.517 E10.85725
G1 X113.453 Y111.702 E10.86351
G1 X112.038 Y114.222 E10.95963
G1 X115.062 Y114.224 E11.06021
G1 X115.2 Y113.968 E11.06988
G1 X115.436 Y113.386 E11.09077
G1 X115.605 Y112.785 E11.11154
G1 X115.711 Y112.164 E11.13249
G1 X115.749 Y111.54 E11.15328
G1 X115.717 Y110.918 E11.174
G1 X115.618 Y110.297 E11.19491
G1 X115.456 Y109.699 E11.21552
G1 X115.227 Y109.127 E11.23601
G1 X114.934 Y108.566 E11.25706
G1 X114.59 Y108.055 E11.27755
G1 X114.185 Y107.577 E11.29839
G1 X113.716 Y107.132 E11.31989
G1 X113.232 Y106.761 E11.34018
G1 X112.711 Y106.447 E11.36041
G1 X112.125 Y106.175 E11.3819
G1 X111.547 Y105.981 E11.40217
G1 X110.932 Y105.844 E11.42313
G1 X110.312 Y105.777 E11.44387
G1 X109.688 Y105.776 E11.46463
G1 X109.068 Y105.843 E11.48537
G1 X108.453 Y105.98 E11.50632
G1 X107.875 Y106.175 E11.52661
G1 X107.289 Y106.447 E11.5481
G1 X106.768 Y106.761 E11.56833
G1 X106.284 Y107.132 E11.58862
G1 X105.814 Y107.577 E11.61014
G1 X105.41 Y108.055 E11.63096
G1 X105.066 Y108.566 E11.65145
G1 X104.773 Y109.127 E11.6725
G1 X104.545 Y109.699 E11.69298
G1 X104.38 Y110.304 E11.71384
G1 X104.283 Y110.918 E11.73451
G1 X104.251 Y111.54 E11.75523
G1 X104.289 Y112.164 E11.77602
G1 X104.395 Y112.785 E11.79697
G1 X104.564 Y113.386 E11.81774
G1 X104.8 Y113.968 E11.83862
G1 X104.938 Y114.224 E11.8483
G1 X108.002 Y114.222 E11.95021
G1 F1500 E5.45021
G0 F6000 X107.564 Y114.123
G0 X108 Y113.897
G0 X106.612 Y111.559
G0 X108.269 Y108.604
G0 X111.657 Y108.561
G0 X113.388 Y111.474
G0 X111.78 Y114.374
G0 X111.511 Y114.203
;TYPE:WALL-OUTER
G1 F1500 E11.95021
G1 F1185.2 X108.592 Y114.231 E12.04851
G1 F1209.1 X108.416 Y114.137 E12.0551
G1 F1200 X106.923 Y111.62 E12.15243
G1 X106.92 Y111.493 E12.15666
G1 X108.36 Y108.922 E12.25467
G1 X108.501 Y108.836 E12.26016
G1 X111.443 Y108.8 E12.35802
G1 X111.558 Y108.853 E12.36223
G1 X113.082 Y111.415 E12.46138
G1 X113.083 Y111.543 E12.46564
G1 X111.65 Y114.096 E12.56301
G1 F1176.5 X111.511 Y114.203 E12.56897
G1 F1500 E6.06897
G0 F6000 X111.78 Y114.374
G0 X114.842 Y114.123
G0 X115.301 Y114.624
G1 F1500 E12.56897
G1 F1200 X115.562 Y114.138 E12.58731
G1 X115.815 Y113.516 E12.60965
G1 X115.996 Y112.873 E12.63186
G1 X116.109 Y112.21 E12.65423
G1 X116.149 Y111.542 E12.67649
G1 X116.115 Y110.876 E12.69867
G1 X116.01 Y110.213 E12.721
G1 X115.836 Y109.572 E12.74309
G1 X115.591 Y108.96 E12.76501
G1 X115.278 Y108.361 E12.78749
G1 X114.91 Y107.813 E12.80945
G1 X114.477 Y107.302 E12.83173
G1 X113.976 Y106.827 E12.85469
